X:1
T:Passa Madonna
T:Luca Marenzio
T:Source : Canzonette alla Napolitana a tre voci---Venetia---G.Vincenti---1587. Editor : André Vierendeels (28/04/17).
T:Notes Original clefs : G2, C1, F3 Editorial accidentals above the staff "Seconda impressione" Music collected by Attilio Gualrieri    
T:Passa Madonna
T:©
T:©
C:Luca Marenzio
Z:©
%%score [ 1 2 3 ]
L:1/8
Q:1/4=120
M:4/4
K:F
V:1 treble nm="Soprano 1" snm="S 1"
V:2 treble nm="Soprano 2" snm="S 2"
V:3 treble-8 nm="Tenor" snm="T"
V:1
"^1)" G4 G2 A2 | B2 c2 d2 e2 | f2 g2 e4 |[M:2/4] d4 ::[M:4/4] d4 c4 | c2 c4 B2 | A6 c2 | %7
w: Pas- sa Ma-|don- na co- me'il|ven- to gli'an-|ni,|pas- sa|la gio- ven-|tu pas-|
w: Ma spe- ro'an-|cor che pas- se-|ran gl'in- gan-|ni,|che por-|t'as- co- n'il|tor men-|
 d2 e2 f4- | f4 e4 | z2 g2 e3 d | c2 B2 A4 | A2 G2 A2 B2 | c4 c2 c2- | c2 d2 d4 | _e4 d4- | %15
w: sa- l'ar- do-|* re,|al fin pur|pas- s'A- mo-|re, pas- s'a- mor|li pia- cer,|_ pas- sa'il|do- lo-|
w: ta- to co-|* re|al fin pir|pas- s'A- mo-|re, pas- s'a- mor|li pia- cer,|_ pas- sa'il|do- lo-|
 d4 !fermata!c4 :| %16
w: * re.|
w: * re.|
V:2
"^2)""^1)" E4 E2 F2 | G2 A2 B2 c2 | d2 d2 ^c4 |[M:2/4] d4 ::[M:4/4] B4 A4 | G2 A4 G2 | F4 A4 | %7
w: Pas- sa Ma-|don- na co- me'il|ven- to gl'an-|ni,|pas- sa|la gio- ven-|tu, pas-|
w: Io spr- ro'an-|co- ra di fi-|nir miei dan-|ni,|che tor-|men- ta- to|por- ta|
 A2 c4 =BA | =B4 c4 | G4 G3 D | E2 E2 F4 | F2 G2 F2 D2 | A4 A2 A2- | A2 =B2 B4 | c8 | %15
w: sa l'ar- do- *|* re,|al fin pur|pas- s'A- mo-|re, pas- s'a- mor|li pia- cer,|_ pas- sa'il|do-|
w: que- sto co- *|* re,|al fin pur|pas- s'A- mo-|re, pas- s'a- mor|li pia- cer,|_ pas- sa'il|do-|
 =B4 !fermata!c4 :| %16
w: lo- re.|
w: lo- re.|
V:3
"^1)""^4)""^3)" c4 c2 A2 | G2 F2 G2 A2 | B2 G2 A4 |[M:2/4] D4 ::[M:4/4] B4 F4 | E2 F4 G2 | D4 F4 | %7
w: Pas- sa Ma-|don- na co- me'il|ven- to gl'an-|ni|pas- sa|la gio- ven-|tu, pas-|
w: Pe- ro la|tua bel- tà spes-|so mi- su-|ra,|che'il tem-|po la- dr'o-|gni pia-|
 F2 E2 D4- | D4 C4 | c4 c3 B | A2 G2 F4 | F2 E2 F2 G2 | F4 F2 F2- | F2 G2 G4 | G4 G4- | %15
w: sa l'ar- do-|* re,|al fin pur|pas- s'A- mo-|re, pas- s'a- mor|il pia- cer,|_ pas- sa'il|do- lo-|
w: cer ci fu-|* ra,|dun- que sta|ben si- cu-|ra, for- tu- na|da dà'e to-|* glie'o- gni|ven- tu-|
 G4 !fermata!C4 :| %16
w: * re|
w: * ra.|

